next-js/public/img/main_menu/menu_title.svg

<svg width="114" height="44" viewBox="0 0 114 44" fill="none" xmlns="http://www.w3.org/2000/svg">
<path d="M17.72 43L21.5 5.8L23.42 37.48L23.84 43H28.28L25.4 0.999997H17.54L16.52 9.7L14.18 37.36L11.84 9.7L10.82 0.999997H2.96L0.0800001 43H4.52L4.94 37.48L6.86 5.8L10.64 43H17.72ZM53.9516 39.52C48.0716 39.52 43.0916 37.36 39.9116 33.88L72.2516 11.56C68.4716 4.78 61.2116 0.159997 52.8716 0.159997C40.6916 0.159997 30.7916 9.94 30.7916 22C30.7916 34.06 40.1516 43.84 53.9516 43.84C61.3916 43.84 67.6316 40.78 71.9516 34.54L68.3516 31.9C64.8716 37.18 59.8916 39.52 53.9516 39.52ZM35.3516 22C35.3516 12.34 43.0916 4.48 52.8716 4.48C58.1516 4.48 62.8916 6.82 66.0716 10.48L37.3916 30.22C36.0716 27.76 35.3516 25 35.3516 22ZM85.1797 37.36L86.3197 43H93.5797V0.999997H89.0197V5.98L89.5597 37.36L83.7397 6.1L82.7197 0.999997H75.4597V43H80.0197V37.54L79.4197 6.4L85.1797 37.36ZM108.695 36.46C108.695 38.02 107.315 39.52 105.635 39.52C103.955 39.52 102.575 38.02 102.575 36.46V0.999997H98.0155V36.04C98.0155 40.36 101.435 43.84 105.635 43.84C109.835 43.84 113.255 40.36 113.255 36.04V0.999997H108.695V36.46Z" fill="#CF4F48"/>
</svg>

<svg xmlns="http://www.w3.org/2000/svg" width="114" height="44" fill="none"><path fill="#CF4F48" d="M17.72 43 21.5 5.8l1.92 31.68.42 5.52h4.44L25.4 1h-7.86l-1.02 8.7-2.34 27.66L11.84 9.7 10.82 1H2.96L.08 43h4.44l.42-5.52L6.86 5.8 10.64 43h7.08Zm36.232-3.48c-5.88 0-10.86-2.16-14.04-5.64l32.34-22.32C68.472 4.78 61.212.16 52.872.16c-12.18 0-22.08 9.78-22.08 21.84s9.36 21.84 23.16 21.84c7.44 0 13.68-3.06 18-9.3l-3.6-2.64c-3.48 5.28-8.46 7.62-14.4 7.62ZM35.352 22c0-9.66 7.74-17.52 17.52-17.52 5.28 0 10.02 2.34 13.2 6l-28.68 19.74c-1.32-2.46-2.04-5.22-2.04-8.22ZM85.18 37.36 86.32 43h7.26V1h-4.56v4.98l.54 31.38L83.74 6.1 82.72 1h-7.26v42h4.56v-5.46l-.6-31.14 5.76 30.96Zm23.515-.9c0 1.56-1.38 3.06-3.06 3.06-1.68 0-3.06-1.5-3.06-3.06V1h-4.56v35.04c0 4.32 3.42 7.8 7.62 7.8s7.62-3.48 7.62-7.8V1h-4.56v35.46Z"/></svg>
